flaticon/file-type/ai.svg

<svg xmlns="http://www.w3.org/2000/svg" width="32" height="32" viewBox="0 0 24 24">
    <path d="M 21.082031 5.042969 L 16.265625 0.226562 C 16.121094 0.0820312 15.925781 0 15.71875 0 L 3.707031 0 C 3.144531 0 2.691406 0.457031 2.691406 1.019531 L 2.691406 22.980469 C 2.691406 23.542969 3.144531 24 3.707031 24 L 20.292969 24 C 20.851562 24 21.308594 23.542969 21.308594 22.980469 L 21.308594 5.59375 C 21.308594 5.386719 21.226562 5.1875 21.082031 5.042969 Z M 16.34375 4.964844 L 16.34375 1.476562 L 19.835938 4.964844 Z M 16.757812 5.792969 L 17.890625 5.792969 C 17.746094 6.039062 17.476562 6.207031 17.171875 6.207031 C 16.875 6.207031 16.613281 6.046875 16.46875 5.808594 C 16.5625 5.800781 16.660156 5.792969 16.757812 5.792969 Z M 20.484375 22.980469 C 20.484375 23.085938 20.398438 23.171875 20.292969 23.171875 L 3.707031 23.171875 C 3.601562 23.171875 3.515625 23.085938 3.515625 22.980469 L 3.515625 16.964844 L 20.484375 16.964844 Z M 3.515625 16.136719 L 3.515625 1.019531 C 3.515625 0.914062 3.601562 0.828125 3.707031 0.828125 L 15.542969 0.828125 C 15.527344 0.878906 15.515625 0.933594 15.515625 0.988281 L 15.515625 5.15625 C 14.246094 5.558594 13.238281 6.554688 12.828125 7.820312 C 12.542969 7.589844 12.1875 7.449219 11.792969 7.449219 C 11.023438 7.449219 10.382812 7.976562 10.195312 8.691406 L 8.898438 8.691406 L 8.898438 7.863281 L 6.414062 7.863281 L 6.414062 10.34375 L 8.898438 10.34375 L 8.898438 9.515625 L 10.105469 9.515625 C 9.964844 10.621094 9.285156 11.578125 8.289062 12.066406 C 8.011719 11.539062 7.464844 11.171875 6.828125 11.171875 C 5.914062 11.171875 5.171875 11.914062 5.171875 12.828125 C 5.171875 13.742188 5.914062 14.484375 6.828125 14.484375 C 7.714844 14.484375 8.4375 13.777344 8.476562 12.898438 C 9.574219 12.421875 10.398438 11.5 10.761719 10.386719 C 11.046875 10.617188 11.402344 10.757812 11.792969 10.757812 C 12.5625 10.757812 13.203125 10.230469 13.390625 9.515625 L 14.691406 9.515625 L 14.691406 10.34375 L 17.171875 10.34375 L 17.171875 7.863281 L 14.691406 7.863281 L 14.691406 8.691406 L 13.476562 8.691406 C 13.632812 7.441406 14.488281 6.40625 15.636719 5.992188 C 15.882812 6.601562 16.476562 7.035156 17.171875 7.035156 C 17.941406 7.035156 18.582031 6.503906 18.769531 5.792969 L 20.320312 5.792969 C 20.375 5.792969 20.429688 5.78125 20.484375 5.769531 L 20.484375 16.136719 Z M 12.621094 9.101562 C 12.621094 9.558594 12.25 9.929688 11.792969 9.929688 C 11.335938 9.929688 10.964844 9.558594 10.964844 9.101562 C 10.964844 8.648438 11.335938 8.277344 11.792969 8.277344 C 12.25 8.277344 12.621094 8.648438 12.621094 9.101562 Z M 8.070312 9.515625 L 7.242188 9.515625 L 7.242188 8.691406 L 8.070312 8.691406 Z M 7.65625 12.828125 C 7.65625 13.285156 7.285156 13.65625 6.828125 13.65625 C 6.371094 13.65625 6 13.285156 6 12.828125 C 6 12.371094 6.371094 12 6.828125 12 C 7.285156 12 7.65625 12.371094 7.65625 12.828125 Z M 15.515625 8.691406 L 16.34375 8.691406 L 16.34375 9.515625 L 15.515625 9.515625 Z M 15.515625 8.691406"/>
    <path d="M9.730469 21.480469L11.296875 21.480469 11.597656 22.34375 12.296875 22.34375 10.851562 18.179688 10.175781 18.179688 8.71875 22.34375 9.425781 22.34375zM10.515625 19.222656L11.132812 21.019531 9.886719 21.019531zM13.1875 18.175781L13.878906 18.175781 13.878906 22.34375 13.1875 22.34375zM13.1875 18.175781"/>
</svg>

<svg xmlns="http://www.w3.org/2000/svg" width="32" height="32" viewBox="0 0 24 24">
    <path d="M21.082 5.043L16.266.227A.771.771 0 0 0 15.719 0H3.707c-.562 0-1.016.457-1.016 1.02v21.96c0 .563.454 1.02 1.016 1.02h16.586a1.02 1.02 0 0 0 1.016-1.02V5.594a.78.78 0 0 0-.227-.551zm-4.738-.078V1.477l3.492 3.488zm.414.828h1.133a.824.824 0 0 1-1.422.016c.093-.008.191-.016.289-.016zm3.726 17.187a.192.192 0 0 1-.191.192H3.707a.192.192 0 0 1-.191-.192v-6.015h16.968zM3.516 16.137V1.02c0-.106.086-.192.191-.192h11.836a.55.55 0 0 0-.027.16v4.168a4.147 4.147 0 0 0-2.688 2.664 1.635 1.635 0 0 0-1.035-.37c-.77 0-1.41.527-1.598 1.241H8.898v-.828H6.414v2.48h2.484v-.827h1.207a3.296 3.296 0 0 1-1.816 2.55 1.654 1.654 0 0 0-1.46-.894 1.657 1.657 0 0 0 0 3.312c.886 0 1.609-.707 1.648-1.586a4.138 4.138 0 0 0 2.285-2.511c.285.23.64.37 1.031.37.77 0 1.41-.527 1.598-1.241h1.3v.828h2.48v-2.48h-2.48v.827h-1.214a3.315 3.315 0 0 1 2.16-2.699 1.66 1.66 0 0 0 1.535 1.043c.77 0 1.41-.531 1.598-1.242h1.55c.055 0 .11-.012.164-.023v10.367zm9.105-7.035a.829.829 0 0 1-1.656 0 .828.828 0 0 1 1.656 0zm-4.55.414h-.829V8.69h.828zm-.415 3.312a.829.829 0 1 1-1.657 0 .829.829 0 0 1 1.657 0zm7.86-4.137h.828v.825h-.828zm0 0"/>
    <path d="M9.73 21.48h1.567l.3.864h.7l-1.445-4.164h-.676l-1.457 4.164h.707zm.786-2.257l.617 1.797H9.887zm0 0M13.188 18.176h.69v4.168h-.69zm0 0"/>
</svg>
